X:1
T:Cantata, BWV.Anh.2 for Organ
T:Cantata, BWV.Anh.2 for Organ
T:カンタータ BWV.Anh.2
T:Johann Sebastian Bach (1685~1750) 
C:Johann Sebastian Bach
C:(1685~1750)
C:
%%score { ( 1 3 ) | ( 2 4 ) }
L:1/8
Q:1/4=92
M:6/8
K:Bb
V:1 treble nm="オルガン" snm="Org."
V:3 treble 
V:2 bass 
V:4 bass 
V:1
"^(Andante)" [DF] | [FB]>[EA][FB]- [FB]>[Ac][Bd] | [FBd]>[GB][FAc]- [FAc]>[Bd][Ace] | %3
 e>cd- d/c/e/d/g/f/ | [CFA]>[B,=EG][A,F]- [A,CF]>[FA][EAc] | [Bf]>[eg][f_a]- [fa]>[eg][da] | %6
 gf/e/d/c/ a>be | d3 z z |] %8
V:2
 B, | z2 B,, D,2 B,, | z2 F, A,2 F, | z2 z z C z | z2 F, A,,2 F,, | D>CB,- B,>EF | z2 E, C,2 A,, | %7
 z3 z z |] %8
V:3
 x | D>C D2- D/E/F | x6 | [Bc]>[EA][FB] [GB]GE | x6 | x6 | e2 z4 | x5 |] %8
V:4
 x | x6 | x6 | x2 B, E,2 C, | x6 | z2 B,, D,2 B, | x6 | x5 |] %8

